X: 1
T: Sevdino Oro
S: Presented by Iliana Bozhanova and Ljuben Dossev 1999
Z: John Chambers <jc@trillian.mit.edu>
M: 7/8
K: Dmix
"A"\
|| {G}A2 AG ~F3 | GA GF ~E3 | E2 D2 ~G3 | F2- FE D3 | E4 F3 |1 D2 A2 ~G2F :|2 ~D7 ||
"B1"\
|: D2 (GA) A3 | (A3G) F3 | A2 F2 G3 | F2 (FE) D3 | D2 E2 (EDE) |
w: Dei gi-*di, Pi-*rin, pla-ni-no, pla-ni-*no; dei gi-de**
w: shet-nal* se ya-*ne San-dan-ski, San-dan-*ski, is ta-ya**
| F4 (EFE) | D2 D2 D3 | G4 (F2E) | D2 E2 (EDE) | F4 (EFE) | D4 E3 | D7 :|
w: ya-ne** San-dan-ski, ai-de,* dei gi-di** ya-ne** San-dan-ski.
w: Pi-rin** pla-ni-na, ai-de,* is ta-ya** Pi-rin** pla-ni-na.
"C"\
|: E4 E3 | E2 D2 G3 | F2- FE D3 | E4 E3 |1 E2 A2 G3 | F4 F3 :|2 E2 F2 D3 | {C}D7 ||
"B2"\
|: D2 (GA) A3 | (A3G) F3 | A2 F2 G3 | F2 (FE) D3 | D2 E2 (EDE) |
w: Ot do-*lu i-*de ov-char-che, ov-char-*che, ov-char-che**
w: Ov-char-*che, mla-*do cho-ban-che, cho-ban-*che, ne si li**
| F4 (EFE) | D2 D2 D3 | G4 (F2E) | D2 E2 (EDE) | F4 (EFE) | D4 E3 | D7 :|
w: mla-do** cho-ban-che, ai-di,* ya-ne mu** ve-li** go-vo-ri:
w: vi-del** che-ta-ta, ai-de,* che-ta na** ya-ne** San-dan-ski?
K:D^f_B_e
"D1"\
|: =Bc c_B ~A2G | F2 FG ~F2E | .D2 E2 ~F2G | AG A2 ~G2F | E2 F2 ~E2D | D4 {C}D3 :|
"E1"\
|: G2 G2 G3 | {G}A2 G2 (G2F) | E4 {F}G3 | {G}A2 G2 (G2F) | E2 F2 (E2D) | D4 D3 :|
w: Sev-di-no, doi-di na* o-ro, Sev-di-no,* doi-di na* or-ro,
w: Ta ka-kyu, ba-yu da* doi-da ka-to si* ne-mam fus-*tan-che?
"F1"\
|: D2 (DE) C3 | C2 D2 (D2E) | F4 (E2D) | F2 G2 (G2F) | E2 F2 (E2D) | D4 D3 :|
w: Sev-di-no, gla-va ne-*ma-*la,* ta shto ne* mi si ka-*za-la?
w: vche-ra* s\`um pa-zar she-* ta lo,* ta e-le* ke s\`um ku-*pi-lo.
"G"
|: FG .A2 ~A3 | ~A2- AG ~A2G | ~F2- FE ~D2E | FG .A2 ~A2G | ~F2 EF ~E2D | ~D4 :|
"E2"\
|: G2 G2 G3 | {G}A2 G2 (G2F) | E4 {F}G3 | {G}A2 G2 (G2F) | E2 F2 (E2D) | D4 D3 :|
w: Sev-di-no, doi-di na* o-ro, Sev-di-no,* doi-di na* or-ro,
w: Ta ka-kyu, ba-yu da* doi-da ka-to si* ne-mam sha-*mi-ya?
"F2"\
|: D2 (DE) C3 | C2 D2 (D2E) | F4 (E2D) | F2 G2 (G2F) | E2 F2 (E2D) | D4 D3 :|
w: Sev-di-no, gla-va ne-*ma-*la,* ta shto ne* mi si ka-*za-la?
w: vche-ra* s\`um pa-zar she-* ta lo,* ta e-le* ke s\`um ku-*pi-lo.
"D2"\
|: =Bc c_B ~A2G | F2 FG ~F2E | .D2 E2 ~F2G | AG A2 ~G2F | E2 F2 ~E2D | D4 {C}D3 :|
